!!! OTL: Berkowitz466
!!! Chapter: 1
!!! Section: IV
!!! Page: 116
!!! Mode: 
!!! Encoder: DJB
**kern
*staff1
*I"Piano
=1-
*clefG2
*k[b-e-a-d-]
*A-:
*M3/4
8e-/L
8dn/J
2e-/
=2
8f/L
8en/J
2f/
=3
8g/L
8f#/J
4g/
4g/
=4
2b-\
4a-/
=5
4r
8an\L
8cc\J
4b-\
=6
4r
8bn\L
8dd-\J
4cc\
=7
4.ddn\
8cc\
4dd\
=8
2ee-\
4een\
=9
4ff\
8b-/L
8an/J
4b-\
=10
4ee-\
8a-/L
8g/J
4a-/
=11
!!linebreak:original
8dd-\L
8cc\J
8b-/L
8a-/J
8g/L
8f/J
=12
2e-/
4dn/
=13
8e-/L
8dn/J
4.e-/
8en/
=14
8f/L
8en/J
2f/
=15
8g/L
8f#/J
4g/
4ee-\
=16
2.a-/
==
*-
